X:132
T:The Countess of Mansfield's Strathspey
S:N. Gow and Sons Complete Repository, adapted for German flute, Book 2, c.1812
B:Glen.46
M:C
L:1/8
Q:1/4=90 "Slow"
K:E Dorian
(g/f/)|e>EE>F      TG>ABc  |Td>e  dA/G/       FDD (Tg/f/)| e>EE>F    TG>AB>G |Ee  {g}fe/^d/     TeEE
(g/f/)|e>EE>F      TG>AB>c |Td>e  d(A/G/)     FDD (Tg/f/)|.E.e.F.e   .G.e.A.e|B>g {g}fe/^d/      eEE||
 g/f/ |Te>fg>a ({ga}b>)age | d>d (f/g/)(a/g/) fdd  (g/f/)|Te>fg>a {ga}b>ag>e |B>g {g}f(e/^d/)    eEE
(g/f/)|Te>fg.a ({ga}b>)ag>e| d>d (f/g/)(a/g/) fdd (Tg/f/)|.E.e.F.e   .G.e.A.e|Eg    (f/g/)(a/f/) gee|]

